bernoullicharts/1_1_x_alt_series__mean.svg

<?xml version="1.0" encoding="utf-8" standalone="no"?>
<!DOCTYPE svg PUBLIC "-//W3C//DTD SVG 1.1//EN"
  "http://www.w3.org/Graphics/SVG/1.1/DTD/svg11.dtd">
<!-- Created with matplotlib (https://matplotlib.org/) -->
<svg height="345.6pt" version="1.1" viewBox="0 0 460.8 345.6" width="460.8pt" xmlns="http://www.w3.org/2000/svg" xmlns:xlink="http://www.w3.org/1999/xlink">
 <defs>
  <style type="text/css">
*{stroke-linecap:butt;stroke-linejoin:round;}
  </style>
 </defs>
 <g id="figure_1">
  <g id="patch_1">
   <path d="M 0 345.6 
L 460.8 345.6 
L 460.8 0 
L 0 0 
z
" style="fill:#ffffff;"/>
  </g>
  <g id="axes_1">
   <g id="patch_2">
    <path d="M 57.6 307.584 
L 414.72 307.584 
L 414.72 41.472 
L 57.6 41.472 
z
" style="fill:#ffffff;"/>
   </g>
   <g id="matplotlib.axis_1">
    <g id="xtick_1">
     <g id="line2d_1">
      <defs>
       <path d="M 0 0 
L 0 3.5 
" id="m88b056174e" style="stroke:#000000;stroke-width:0.8;"/>
      </defs>
      <g>
       <use style="stroke:#000000;stroke-width:0.8;" x="73.800255" xlink:href="#m88b056174e" y="307.584"/>
      </g>
     </g>
     <g id="text_1">
      <text style="font-family:DejaVu Sans;font-size:10px;font-style:normal;font-weight:normal;text-anchor:middle;" transform="rotate(-0, 73.800255, 322.182437)" x="73.800255" y="322.182437">0.0</text>
     </g>
    </g>
    <g id="xtick_2">
     <g id="line2d_2">
      <g>
       <use style="stroke:#000000;stroke-width:0.8;" x="138.744153" xlink:href="#m88b056174e" y="307.584"/>
      </g>
     </g>
     <g id="text_2">
      <text style="font-family:DejaVu Sans;font-size:10px;font-style:normal;font-weight:normal;text-anchor:middle;" transform="rotate(-0, 138.744153, 322.182437)" x="138.744153" y="322.182437">0.2</text>
     </g>
    </g>
    <g id="xtick_3">
     <g id="line2d_3">
      <g>
       <use style="stroke:#000000;stroke-width:0.8;" x="203.688051" xlink:href="#m88b056174e" y="307.584"/>
      </g>
     </g>
     <g id="text_3">
      <text style="font-family:DejaVu Sans;font-size:10px;font-style:normal;font-weight:normal;text-anchor:middle;" transform="rotate(-0, 203.688051, 322.182437)" x="203.688051" y="322.182437">0.4</text>
     </g>
    </g>
    <g id="xtick_4">
     <g id="line2d_4">
      <g>
       <use style="stroke:#000000;stroke-width:0.8;" x="268.631949" xlink:href="#m88b056174e" y="307.584"/>
      </g>
     </g>
     <g id="text_4">
      <text style="font-family:DejaVu Sans;font-size:10px;font-style:normal;font-weight:normal;text-anchor:middle;" transform="rotate(-0, 268.631949, 322.182437)" x="268.631949" y="322.182437">0.6</text>
     </g>
    </g>
    <g id="xtick_5">
     <g id="line2d_5">
      <g>
       <use style="stroke:#000000;stroke-width:0.8;" x="333.575847" xlink:href="#m88b056174e" y="307.584"/>
      </g>
     </g>
     <g id="text_5">
      <text style="font-family:DejaVu Sans;font-size:10px;font-style:normal;font-weight:normal;text-anchor:middle;" transform="rotate(-0, 333.575847, 322.182437)" x="333.575847" y="322.182437">0.8</text>
     </g>
    </g>
    <g id="xtick_6">
     <g id="line2d_6">
      <g>
       <use style="stroke:#000000;stroke-width:0.8;" x="398.519745" xlink:href="#m88b056174e" y="307.584"/>
      </g>
     </g>
     <g id="text_6">
      <text style="font-family:DejaVu Sans;font-size:10px;font-style:normal;font-weight:normal;text-anchor:middle;" transform="rotate(-0, 398.519745, 322.182437)" x="398.519745" y="322.182437">1.0</text>
     </g>
    </g>
    <g id="text_7">
     <text style="font-family:DejaVu Sans;font-size:10px;font-style:normal;font-weight:normal;text-anchor:middle;" transform="rotate(-0, 236.16, 335.860562)" x="236.16" y="335.860562">Input Coin's Heads Probability (λ)</text>
    </g>
   </g>
   <g id="matplotlib.axis_2">
    <g id="ytick_1">
     <g id="line2d_7">
      <defs>
       <path d="M 0 0 
L -3.5 0 
" id="m161b3f4f0c" style="stroke:#000000;stroke-width:0.8;"/>
      </defs>
      <g>
       <use style="stroke:#000000;stroke-width:0.8;" x="57.6" xlink:href="#m161b3f4f0c" y="295.500097"/>
      </g>
     </g>
     <g id="text_8">
      <text style="font-family:DejaVu Sans;font-size:10px;font-style:normal;font-weight:normal;text-anchor:end;" transform="rotate(-0, 50.6, 299.299316)" x="50.6" y="299.299316">0.5</text>
     </g>
    </g>
    <g id="ytick_2">
     <g id="line2d_8">
      <g>
       <use style="stroke:#000000;stroke-width:0.8;" x="57.6" xlink:href="#m161b3f4f0c" y="247.113678"/>
      </g>
     </g>
     <g id="text_9">
      <text style="font-family:DejaVu Sans;font-size:10px;font-style:normal;font-weight:normal;text-anchor:end;" transform="rotate(-0, 50.6, 250.912897)" x="50.6" y="250.912897">0.6</text>
     </g>
    </g>
    <g id="ytick_3">
     <g id="line2d_9">
      <g>
       <use style="stroke:#000000;stroke-width:0.8;" x="57.6" xlink:href="#m161b3f4f0c" y="198.727258"/>
      </g>
     </g>
     <g id="text_10">
      <text style="font-family:DejaVu Sans;font-size:10px;font-style:normal;font-weight:normal;text-anchor:end;" transform="rotate(-0, 50.6, 202.526477)" x="50.6" y="202.526477">0.7</text>
     </g>
    </g>
    <g id="ytick_4">
     <g id="line2d_10">
      <g>
       <use style="stroke:#000000;stroke-width:0.8;" x="57.6" xlink:href="#m161b3f4f0c" y="150.340839"/>
      </g>
     </g>
     <g id="text_11">
      <text style="font-family:DejaVu Sans;font-size:10px;font-style:normal;font-weight:normal;text-anchor:end;" transform="rotate(-0, 50.6, 154.140058)" x="50.6" y="154.140058">0.8</text>
     </g>
    </g>
    <g id="ytick_5">
     <g id="line2d_11">
      <g>
       <use style="stroke:#000000;stroke-width:0.8;" x="57.6" xlink:href="#m161b3f4f0c" y="101.954419"/>
      </g>
     </g>
     <g id="text_12">
      <text style="font-family:DejaVu Sans;font-size:10px;font-style:normal;font-weight:normal;text-anchor:end;" transform="rotate(-0, 50.6, 105.753638)" x="50.6" y="105.753638">0.9</text>
     </g>
    </g>
    <g id="ytick_6">
     <g id="line2d_12">
      <g>
       <use style="stroke:#000000;stroke-width:0.8;" x="57.6" xlink:href="#m161b3f4f0c" y="53.568"/>
      </g>
     </g>
     <g id="text_13">
      <text style="font-family:DejaVu Sans;font-size:10px;font-style:normal;font-weight:normal;text-anchor:end;" transform="rotate(-0, 50.6, 57.367219)" x="50.6" y="57.367219">1.0</text>
     </g>
    </g>
    <g id="text_14">
     <text style="font-family:DejaVu Sans;font-size:10px;font-style:normal;font-weight:normal;text-anchor:middle;" transform="rotate(-90, 28.617187, 174.528)" x="28.617187" y="174.528">Simulated Mean / Function Value</text>
    </g>
   </g>
   <g id="line2d_13">
    <path clip-path="url(#p31196047f1)" d="M 73.832727 53.616382 
L 77.112066 58.453103 
L 80.391405 63.194076 
L 83.670744 67.842115 
L 86.950083 72.399928 
L 90.229421 76.870115 
L 93.50876 81.25518 
L 96.788099 85.557531 
L 100.067438 89.779487 
L 103.346777 93.923279 
L 106.626116 97.99106 
L 109.905455 101.984901 
L 113.184793 105.9068 
L 116.464132 109.758683 
L 119.743471 113.54241 
L 123.02281 117.259773 
L 126.302149 120.912503 
L 129.581488 124.50227 
L 132.860826 128.03069 
L 136.140165 131.499321 
L 139.419504 134.90967 
L 142.698843 138.263195 
L 145.978182 141.561302 
L 149.257521 144.805356 
L 152.53686 147.996673 
L 155.816198 151.13653 
L 159.095537 154.226161 
L 162.374876 157.266762 
L 165.654215 160.25949 
L 168.933554 163.205468 
L 172.212893 166.105783 
L 175.492231 168.961487 
L 178.77157 171.773603 
L 182.050909 174.543121 
L 185.330248 177.271001 
L 188.609587 179.958175 
L 191.888926 182.605548 
L 195.168264 185.213998 
L 198.447603 187.784376 
L 201.726942 190.317511 
L 205.006281 192.814205 
L 208.28562 195.27524 
L 211.564959 197.701374 
L 214.844298 200.093344 
L 218.123636 202.451867 
L 221.402975 204.77764 
L 224.682314 207.071339 
L 227.961653 209.333625 
L 231.240992 211.565137 
L 234.520331 213.766499 
L 237.799669 215.938319 
L 241.079008 218.081187 
L 244.358347 220.195679 
L 247.637686 222.282353 
L 250.917025 224.341756 
L 254.196364 226.374419 
L 257.475702 228.380859 
L 260.755041 230.36158 
L 264.03438 232.317074 
L 267.313719 234.247819 
L 270.593058 236.154283 
L 273.872397 238.03692 
L 277.151736 239.896175 
L 280.431074 241.732481 
L 283.710413 243.546259 
L 286.989752 245.337922 
L 290.269091 247.107871 
L 293.54843 248.8565 
L 296.827769 250.584191 
L 300.107107 252.291318 
L 303.386446 253.978245 
L 306.665785 255.64533 
L 309.945124 257.29292 
L 313.224463 258.921356 
L 316.503802 260.530969 
L 319.78314 262.122083 
L 323.062479 263.695017 
L 326.341818 265.250079 
L 329.621157 266.787573 
L 332.900496 268.307795 
L 336.179835 269.811034 
L 339.459174 271.297573 
L 342.738512 272.767689 
L 346.017851 274.221652 
L 349.29719 275.659727 
L 352.576529 277.082174 
L 355.855868 278.489246 
L 359.135207 279.88119 
L 362.414545 281.258249 
L 365.693884 282.620661 
L 368.973223 283.968658 
L 372.252562 285.302469 
L 375.531901 286.622314 
L 378.81124 287.928414 
L 382.090579 289.22098 
L 385.369917 290.500224 
L 388.649256 291.766349 
L 391.928595 293.019556 
L 395.207934 294.260042 
L 398.487273 295.488 
" style="fill:none;stroke:#1f77b4;stroke-linecap:square;stroke-width:1.5;"/>
   </g>
   <g id="line2d_14">
    <path clip-path="url(#p31196047f1)" d="M 73.832727 53.568 
L 77.112066 57.438914 
L 80.391405 62.277555 
L 83.670744 63.245284 
L 86.950083 74.858025 
L 90.229421 72.922568 
L 93.50876 71.954839 
L 96.788099 87.438494 
L 100.067438 94.212592 
L 103.346777 95.180321 
L 106.626116 104.857605 
L 109.905455 96.148049 
L 113.184793 107.76079 
L 116.464132 113.56716 
L 119.743471 115.502617 
L 123.02281 122.276716 
L 126.302149 128.083086 
L 129.581488 110.663975 
L 132.860826 130.018543 
L 136.140165 113.56716 
L 139.419504 144.534469 
L 142.698843 134.857185 
L 145.978182 128.083086 
L 149.257521 153.244024 
L 152.53686 136.792641 
L 155.816198 163.889036 
L 159.095537 160.018123 
L 162.374876 156.147209 
L 165.654215 158.082666 
L 168.933554 142.599012 
L 172.212893 162.921308 
L 175.492231 177.437234 
L 178.77157 184.211332 
L 182.050909 166.792221 
L 185.330248 176.469505 
L 188.609587 178.404962 
L 191.888926 188.082246 
L 195.168264 192.920888 
L 198.447603 203.5659 
L 201.726942 196.791802 
L 205.006281 186.146789 
L 208.28562 181.308147 
L 211.564959 201.630443 
L 214.844298 210.339999 
L 218.123636 212.275456 
L 221.402975 201.630443 
L 224.682314 203.5659 
L 227.961653 212.275456 
L 231.240992 222.920468 
L 234.520331 203.5659 
L 237.799669 229.694567 
L 241.079008 205.501357 
L 244.358347 225.823653 
L 247.637686 221.95274 
L 250.917025 213.243184 
L 254.196364 213.243184 
L 257.475702 233.56548 
L 260.755041 228.726838 
L 264.03438 224.855925 
L 267.313719 240.339579 
L 270.593058 220.017283 
L 273.872397 229.694567 
L 277.151736 236.468665 
L 280.431074 238.404122 
L 283.710413 244.210493 
L 286.989752 251.95232 
L 290.269091 248.081406 
L 293.54843 245.178221 
L 296.827769 266.468246 
L 300.107107 254.855505 
L 303.386446 257.75869 
L 306.665785 280.984171 
L 309.945124 234.533209 
L 313.224463 251.95232 
L 316.503802 259.694147 
L 319.78314 253.887776 
L 323.062479 266.468246 
L 326.341818 268.403702 
L 329.621157 259.694147 
L 332.900496 269.371431 
L 336.179835 288.725998 
L 339.459174 269.371431 
L 342.738512 261.629604 
L 346.017851 285.822813 
L 349.29719 268.403702 
L 352.576529 269.371431 
L 355.855868 287.75827 
L 359.135207 270.339159 
L 362.414545 280.016443 
L 365.693884 288.725998 
L 368.973223 282.919628 
L 372.252562 283.887357 
L 375.531901 276.145529 
L 378.81124 285.822813 
L 382.090579 289.693727 
L 385.369917 283.887357 
L 388.649256 290.661455 
L 391.928595 293.56464 
L 395.207934 285.822813 
" style="fill:none;stroke:#ff7f0e;stroke-linecap:square;stroke-width:1.5;"/>
   </g>
   <g id="patch_3">
    <path d="M 57.6 307.584 
L 57.6 41.472 
" style="fill:none;stroke:#000000;stroke-linecap:square;stroke-linejoin:miter;stroke-width:0.8;"/>
   </g>
   <g id="patch_4">
    <path d="M 414.72 307.584 
L 414.72 41.472 
" style="fill:none;stroke:#000000;stroke-linecap:square;stroke-linejoin:miter;stroke-width:0.8;"/>
   </g>
   <g id="patch_5">
    <path d="M 57.6 307.584 
L 414.72 307.584 
" style="fill:none;stroke:#000000;stroke-linecap:square;stroke-linejoin:miter;stroke-width:0.8;"/>
   </g>
   <g id="patch_6">
    <path d="M 57.6 41.472 
L 414.72 41.472 
" style="fill:none;stroke:#000000;stroke-linecap:square;stroke-linejoin:miter;stroke-width:0.8;"/>
   </g>
   <g id="text_15">
    <text style="font-family:DejaVu Sans;font-size:12px;font-style:normal;font-weight:normal;" transform="translate(84.335625 22.034625)">Simulated Mean for 1/(1+x) (Alt. Series) Algorithm</text>
    <text style="font-family:DejaVu Sans;font-size:12px;font-style:normal;font-weight:normal;" transform="translate(132.609375 35.472)">(Wasserstein Distances in Legend)</text>
   </g>
   <g id="legend_1">
    <g id="patch_7">
     <path d="M 229.47 78.82825 
L 407.72 78.82825 
Q 409.72 78.82825 409.72 76.82825 
L 409.72 48.472 
Q 409.72 46.472 407.72 46.472 
L 229.47 46.472 
Q 227.47 46.472 227.47 48.472 
L 227.47 76.82825 
Q 227.47 78.82825 229.47 78.82825 
z
" style="fill:#ffffff;opacity:0.8;stroke:#cccccc;stroke-linejoin:miter;"/>
    </g>
    <g id="line2d_15">
     <path d="M 231.47 54.570437 
L 251.47 54.570437 
" style="fill:none;stroke:#1f77b4;stroke-linecap:square;stroke-width:1.5;"/>
    </g>
    <g id="line2d_16"/>
    <g id="text_16">
     <text style="font-family:DejaVu Sans;font-size:10px;font-style:normal;font-weight:normal;text-anchor:start;" transform="rotate(-0, 259.47, 58.070437)" x="259.47" y="58.070437">1/(1+x)</text>
    </g>
    <g id="line2d_17">
     <path d="M 231.47 69.248562 
L 251.47 69.248562 
" style="fill:none;stroke:#ff7f0e;stroke-linecap:square;stroke-width:1.5;"/>
    </g>
    <g id="line2d_18"/>
    <g id="text_17">
     <text style="font-family:DejaVu Sans;font-size:10px;font-style:normal;font-weight:normal;text-anchor:start;" transform="rotate(-0, 259.47, 72.748562)" x="259.47" y="72.748562">Simul. Mean (WD=0.004225)</text>
    </g>
   </g>
  </g>
 </g>
 <defs>
  <clipPath id="p31196047f1">
   <rect height="266.112" width="357.12" x="57.6" y="41.472"/>
  </clipPath>
 </defs>
</svg>

<svg height="460.8" viewBox="0 0 460.8 345.6" width="614.4" xmlns="http://www.w3.org/2000/svg" xmlns:xlink="http://www.w3.org/1999/xlink"><defs><style>*{stroke-linecap:butt;stroke-linejoin:round}</style></defs><g id="figure_1"><path d="M0 345.6h460.8V0H0z" fill="#fff" id="patch_1"/><g id="axes_1"><path d="M57.6 307.584h357.12V41.472H57.6z" fill="#fff" id="patch_2"/><g id="matplotlib.axis_1"><g id="xtick_1"><g id="line2d_1"><defs><path d="M0 0v3.5" id="m88b056174e" stroke="#000" stroke-width=".8"/></defs><use x="73.8" xlink:href="#m88b056174e" y="307.584" stroke="#000" stroke-width=".8"/></g><text x="73.8" y="322.182" font-family="DejaVu Sans" font-size="10" font-weight="400" text-anchor="middle" id="text_1">0.0</text></g><g id="xtick_2"><use x="138.744" xlink:href="#m88b056174e" y="307.584" stroke="#000" stroke-width=".8" id="line2d_2"/><text x="138.744" y="322.182" font-family="DejaVu Sans" font-size="10" font-weight="400" text-anchor="middle" id="text_2">0.2</text></g><g id="xtick_3"><use x="203.688" xlink:href="#m88b056174e" y="307.584" stroke="#000" stroke-width=".8" id="line2d_3"/><text x="203.688" y="322.182" font-family="DejaVu Sans" font-size="10" font-weight="400" text-anchor="middle" id="text_3">0.4</text></g><g id="xtick_4"><use x="268.632" xlink:href="#m88b056174e" y="307.584" stroke="#000" stroke-width=".8" id="line2d_4"/><text x="268.632" y="322.182" font-family="DejaVu Sans" font-size="10" font-weight="400" text-anchor="middle" id="text_4">0.6</text></g><g id="xtick_5"><use x="333.576" xlink:href="#m88b056174e" y="307.584" stroke="#000" stroke-width=".8" id="line2d_5"/><text x="333.576" y="322.182" font-family="DejaVu Sans" font-size="10" font-weight="400" text-anchor="middle" id="text_5">0.8</text></g><g id="xtick_6"><use x="398.52" xlink:href="#m88b056174e" y="307.584" stroke="#000" stroke-width=".8" id="line2d_6"/><text x="398.52" y="322.182" font-family="DejaVu Sans" font-size="10" font-weight="400" text-anchor="middle" id="text_6">1.0</text></g><text x="236.16" y="335.861" font-family="DejaVu Sans" font-size="10" font-weight="400" text-anchor="middle" id="text_7">Input Coin&apos;s Heads Probability (λ)</text></g><g id="matplotlib.axis_2"><g id="ytick_1"><g id="line2d_7"><defs><path d="M0 0h-3.5" id="m161b3f4f0c" stroke="#000" stroke-width=".8"/></defs><use x="57.6" xlink:href="#m161b3f4f0c" y="295.5" stroke="#000" stroke-width=".8"/></g><text x="50.6" y="299.299" font-family="DejaVu Sans" font-size="10" font-weight="400" text-anchor="end" id="text_8">0.5</text></g><g id="ytick_2"><use x="57.6" xlink:href="#m161b3f4f0c" y="247.114" stroke="#000" stroke-width=".8" id="line2d_8"/><text x="50.6" y="250.913" font-family="DejaVu Sans" font-size="10" font-weight="400" text-anchor="end" id="text_9">0.6</text></g><g id="ytick_3"><use x="57.6" xlink:href="#m161b3f4f0c" y="198.727" stroke="#000" stroke-width=".8" id="line2d_9"/><text x="50.6" y="202.526" font-family="DejaVu Sans" font-size="10" font-weight="400" text-anchor="end" id="text_10">0.7</text></g><g id="ytick_4"><use x="57.6" xlink:href="#m161b3f4f0c" y="150.341" stroke="#000" stroke-width=".8" id="line2d_10"/><text x="50.6" y="154.14" font-family="DejaVu Sans" font-size="10" font-weight="400" text-anchor="end" id="text_11">0.8</text></g><g id="ytick_5"><use x="57.6" xlink:href="#m161b3f4f0c" y="101.954" stroke="#000" stroke-width=".8" id="line2d_11"/><text x="50.6" y="105.754" font-family="DejaVu Sans" font-size="10" font-weight="400" text-anchor="end" id="text_12">0.9</text></g><g id="ytick_6"><use x="57.6" xlink:href="#m161b3f4f0c" y="53.568" stroke="#000" stroke-width=".8" id="line2d_12"/><text x="50.6" y="57.367" font-family="DejaVu Sans" font-size="10" font-weight="400" text-anchor="end" id="text_13">1.0</text></g><text transform="rotate(-90 28.617 174.528)" x="28.617" y="174.528" font-family="DejaVu Sans" font-size="10" font-weight="400" text-anchor="middle" id="text_14">Simulated Mean / Function Value</text></g><path clip-path="url(#p31196047f1)" d="M73.833 53.616l3.28 4.837 3.278 4.741 3.28 4.648 3.28 4.558 3.278 4.47 3.28 4.385 3.28 4.303 3.278 4.221 3.28 4.144 3.28 4.068 3.278 3.994 3.28 3.922 3.28 3.852 3.278 3.783 3.28 3.718 3.28 3.653 3.278 3.59 3.28 3.528 3.28 3.468 3.279 3.41 3.279 3.354 3.28 3.298 3.279 3.244 3.279 3.192 3.28 3.14 3.279 3.09 3.279 3.04 3.28 2.992 3.279 2.946 3.279 2.9 3.28 2.856 3.279 2.813 3.279 2.77 3.28 2.727 3.279 2.687 3.279 2.648 3.28 2.608 3.279 2.57 3.279 2.534 3.28 2.496 3.279 2.461 3.279 2.426 3.28 2.392 3.279 2.359 3.279 2.326 3.28 2.293 3.279 2.263 3.279 2.231 3.28 2.201 3.279 2.172 3.279 2.143 3.28 2.115 3.279 2.086 3.279 2.06 3.28 2.032 3.279 2.007 3.279 1.98 3.28 1.956 3.279 1.93 3.28 1.907 3.278 1.883 3.28 1.86 3.28 1.835 3.278 1.814 3.28 1.792 3.28 1.77 3.278 1.749 3.28 1.727 3.28 1.707 3.278 1.687 3.28 1.667 3.28 1.648 3.278 1.628 3.28 1.61 3.28 1.591 3.278 1.573 3.28 1.555 3.28 1.538 3.278 1.52 3.28 1.503 3.28 1.487 3.279 1.47 3.279 1.454 3.28 1.438 3.279 1.422 3.279 1.407 3.28 1.392 3.279 1.377 3.279 1.363 3.28 1.348 3.279 1.333 3.279 1.32 3.28 1.306 3.279 1.293 3.279 1.28 3.28 1.265 3.279 1.254 3.279 1.24 3.28 1.228" fill="none" stroke="#1f77b4" stroke-linecap="square" stroke-width="1.5" id="line2d_13"/><path clip-path="url(#p31196047f1)" d="M73.833 53.568l3.28 3.87 3.278 4.84 3.28.967 3.28 11.613 3.278-1.935 3.28-.968 3.28 15.483 3.278 6.775 3.28.967 3.28 9.678 3.278-8.71 3.28 11.613 3.28 5.806 3.278 1.936 3.28 6.774 3.28 5.806 3.278-17.419 3.28 19.355 3.28-16.452 3.279 30.967 3.279-9.677 3.28-6.774 3.279 25.161 3.279-16.451 3.28 27.096 3.279-3.87 3.279-3.872 3.28 1.936 3.279-15.484 3.279 20.322 3.28 14.516 3.279 6.774 3.279-17.419 3.28 9.678 3.279 1.935 3.279 9.677 3.28 4.839 3.279 10.645 3.279-6.774 3.28-10.645 3.279-4.839 3.279 20.322 3.28 8.71 3.279 1.935 3.279-10.645 3.28 1.936 3.279 8.71 3.279 10.644 3.28-19.354 3.279 26.129 3.279-24.194 3.28 20.323 3.279-3.871 3.279-8.71h3.28l3.279 20.322 3.279-4.838 3.28-3.871 3.279 15.484 3.28-20.323 3.278 9.678 3.28 6.774 3.28 1.935 3.278 5.806 3.28 7.742 3.28-3.87 3.278-2.904 3.28 21.29 3.28-11.612 3.278 2.903 3.28 23.225 3.28-46.45 3.278 17.418 3.28 7.742 3.28-5.806 3.278 12.58 3.28 1.936 3.28-8.71 3.278 9.677 3.28 19.355 3.28-19.355 3.279-7.741 3.279 24.193 3.28-17.42 3.279.968 3.279 18.387 3.28-17.419 3.279 9.677 3.279 8.71 3.28-5.806 3.279.967 3.279-7.741 3.28 9.677 3.279 3.87 3.279-5.806 3.28 6.774 3.279 2.904 3.279-7.742" fill="none" stroke="#ff7f0e" stroke-linecap="square" stroke-width="1.5" id="line2d_14"/><path d="M57.6 307.584V41.472" fill="none" stroke="#000" stroke-linecap="square" stroke-width=".8" id="patch_3"/><path d="M414.72 307.584V41.472" fill="none" stroke="#000" stroke-linecap="square" stroke-width=".8" id="patch_4"/><path d="M57.6 307.584h357.12" fill="none" stroke="#000" stroke-linecap="square" stroke-width=".8" id="patch_5"/><path d="M57.6 41.472h357.12" fill="none" stroke="#000" stroke-linecap="square" stroke-width=".8" id="patch_6"/><g id="text_15" font-family="DejaVu Sans" font-size="12" font-weight="400"><text transform="translate(84.336 22.035)">Simulated Mean for 1/(1+x) (Alt. Series) Algorithm</text><text transform="translate(132.61 35.472)">(Wasserstein Distances in Legend)</text></g><g id="legend_1"><path d="M229.47 78.828h178.25q2 0 2-2V48.472q0-2-2-2H229.47q-2 0-2 2v28.356q0 2 2 2z" fill="#fff" opacity=".8" stroke="#ccc" id="patch_7"/><path d="M231.47 54.57h20" fill="none" stroke="#1f77b4" stroke-linecap="square" stroke-width="1.5" id="line2d_15"/><text x="259.47" y="58.07" font-family="DejaVu Sans" font-size="10" font-weight="400" id="text_16">1/(1+x)</text><path d="M231.47 69.249h20" fill="none" stroke="#ff7f0e" stroke-linecap="square" stroke-width="1.5" id="line2d_17"/><text x="259.47" y="72.749" font-family="DejaVu Sans" font-size="10" font-weight="400" id="text_17">Simul. Mean (WD=0.004225)</text></g></g></g><defs><clipPath id="p31196047f1"><path d="M57.6 41.472h357.12v266.112H57.6z"/></clipPath></defs></svg>
